X: 118
T: Irish-American Reel
T: Reel, F
L: 1/16
M: C|
K: F
|: c2e2| f2a2g2e2 f2c2a2f2| b2g2e2g2 f2d2c2B2| A2F2c2F2 d2F2c2F2| A2G2G2^F2 G4c2e2| 
f2a2g2e2 f2c2a2f2| b2g2e2g2 f2d2c2B2| A2B2c2d2 e2f2g2a2| b2g2e2g2 f4:| 
|: f2g2| a2f2c2f2 A2c2f2g2| a2f2c2f2 A2c2f2a2| b2a2g2f2 g4g2f2| e2g2f2d2 c2e2f2g2| 
a2f2c2f2 A2c2f2g2| a2f2b2g2 e2c2d2e2| f2c2d2B2 c2A2B2G2| A2F2E2G2 F4:| 
D: The Beatons of Mabou, Rounder 7011
D: Stephanie Wills, Tradition Continued, STEPH 1-94
